X:276
T:Arkle Mountain, The
O:england
C:Anthony Sullivan
R:reel
M:C|
K:Dmix
Ad~d2 AGFG|Adde gc~c2|Ad~d2 efge|afge fde^c|
Ad~d2 AGFG|Adde gc~c2|dBcA BGAF|GBAG FDD2:|
|:~a3f ~g3e|dfed ^cA~A2|~a3f ~g3e|dfaf defg|
~a3f ~g3e|dfed ^cAFG|AddB c2cA|GBAG FDD2:|


